packages/sources/icons/src/vitamix/bill-fill.svg

<svg width="16" height="16" viewBox="0 0 16 16" fill="none" xmlns="http://www.w3.org/2000/svg">
<path fill-rule="evenodd" clip-rule="evenodd" d="M13.3333 14.6667H2.66667C2.29848 14.6667 2 14.3682 2 14V2.00001C2 1.63182 2.29848 1.33334 2.66667 1.33334H13.3333C13.7015 1.33334 14 1.63182 14 2.00001V14C14 14.3682 13.7015 14.6667 13.3333 14.6667ZM5.33333 6.00001V7.33334H10.6667V6.00001H5.33333ZM5.33333 10V8.66668H10.6667V10H5.33333Z" fill="#001018"/>
</svg>

<svg width="16" height="16" fill="none" xmlns="http://www.w3.org/2000/svg"><path fill-rule="evenodd" clip-rule="evenodd" d="M13.333 14.667H2.667A.667.667 0 0 1 2 14V2c0-.368.298-.667.667-.667h10.666c.368 0 .667.299.667.667v12a.667.667 0 0 1-.667.667zM5.333 6v1.333h5.334V6H5.333zm0 4V8.667h5.334V10H5.333z" fill="#001018"/></svg>
